X: 31253
T: Paddy Fahy's
R: jig
M: 6/8
K: Cmajor
|:cBc dcB|cGE CEG|FEF DEF|GAB ced|
cBc dcB|cGE CEG|FEF DGF|EC{D}C C3:|
|:cBc g^fg|ea^f gec|A2 f fef|Adf afd|
cBc g^fg|ea^f g2 a|gec fdB|cGE C3:|

